Newaita-dark/apps/24/mintbackup.svg

<svg height="24pt" viewBox="0 0 24 24" width="24pt" xmlns="http://www.w3.org/2000/svg" xmlns:xlink="http://www.w3.org/1999/xlink"><linearGradient id="a"><stop offset="0" stop-opacity=".313725"/><stop offset=".222222" stop-opacity=".27451"/><stop offset="1" stop-opacity="0"/></linearGradient><radialGradient id="b" cx="450.90894" cy="189.57936" gradientTransform="matrix(.00000013 -.0585994 -.105479 -.00000008 33.392364 47.696499)" gradientUnits="userSpaceOnUse" r="21.166656" xlink:href="#a"/><radialGradient id="c" cx="450.90894" cy="189.57936" gradientTransform="matrix(-.00000013 .0585994 .105479 .00000008 -9.57759 -5.645611)" gradientUnits="userSpaceOnUse" r="21.166656" xlink:href="#a"/><radialGradient id="d" cx="450.90894" cy="189.57936" gradientTransform="matrix(-.00000013 -.0585994 .105479 -.00000008 -9.57759 47.696499)" gradientUnits="userSpaceOnUse" r="21.166656" xlink:href="#a"/><radialGradient id="e" cx="450.90894" cy="189.57936" gradientTransform="matrix(.00000013 .0585994 -.105479 .00000008 33.392363 -5.645611)" gradientUnits="userSpaceOnUse" r="21.166656" xlink:href="#a"/><linearGradient id="f" gradientTransform="matrix(.01002 0 0 .0468795 9.349039 10.079088)" gradientUnits="userSpaceOnUse" x1="255.32306" x2="255.32304" y1="233.5" y2="254.66666"><stop offset="0" stop-opacity=".27451"/><stop offset="1" stop-opacity="0"/></linearGradient><linearGradient id="g" gradientUnits="userSpaceOnUse" x1="254" x2="254" y1="-168.66667" y2="233.5"><stop offset="0" stop-color="#aed581"/><stop offset="1" stop-color="#9ccc65"/></linearGradient><linearGradient id="h" gradientUnits="userSpaceOnUse" x1="11.90736" x2="11.90736" y1="21.0253985937" y2="2.17207760142"><stop offset="0" stop-color="#424242"/><stop offset="1" stop-color="#616161"/></linearGradient><path d="m13.644531 21.027344h1.984375v-.996094h-1.984375zm0 0" fill="url(#b)"/><path d="m10.171875 21.027344h-1.984375v.992187h1.984375zm0 0" fill="url(#c)"/><path d="m10.171875 21.027344h-1.984375v-.996094h1.984375zm0 0" fill="url(#d)"/><path d="m13.644531 21.027344h1.984375v.992187h-1.984375zm0 0" fill="url(#e)"/><path d="m10.171875 20.777344h3.472656v1.242187h-3.472656zm0 0" fill="url(#f)"/><path d="m253.975747-168.671091c111.072726 0 201.147458 89.991406 201.147458 201.064133 0 111.072726-90.074732 201.147458-201.147458 201.147458-110.989402 0-201.064133-90.074732-201.064133-201.147458 0-111.072727 90.074731-201.064133 201.064133-201.064133zm0 0" fill="url(#g)" stroke="#333" stroke-linecap="round" stroke-width="3" transform="matrix(.0468795 0 0 .0468795 0 10.079087)"/><path d="m11.90625 21.027344c-5.222656 0-9.425781-4.207032-9.425781-9.429688 0-.03125 0-.058594 0-.089844.050781 5.179688 4.234375 9.332032 9.425781 9.332032s9.378906-4.152344 9.425781-9.332032c0 .03125.003907.058594.003907.089844 0 5.222656-4.207032 9.429688-9.429688 9.429688zm0 0" fill-opacity=".196078"/><path d="m11.90625 2.171875c-5.222656 0-9.425781 4.203125-9.425781 9.425781v.09375c.050781-5.179687 4.234375-9.335937 9.425781-9.335937s9.378906 4.15625 9.425781 9.335937c0-.03125.003907-.0625.003907-.09375 0-5.222656-4.207032-9.425781-9.429688-9.425781zm0 0" fill="#fff" fill-opacity=".392157"/><path d="m11.90625 2.101562c-5.257812 0-9.496094 4.238282-9.496094 9.496094 0 5.261719 4.238282 9.5 9.496094 9.5 5.261719 0 9.5-4.238281 9.5-9.5 0-5.257812-4.238281-9.496094-9.5-9.496094zm0 .140626c5.1875 0 9.359375 4.171874 9.359375 9.355468 0 5.1875-4.171875 9.359375-9.359375 9.359375-5.183594 0-9.355469-4.171875-9.355469-9.359375 0-5.183594 4.171875-9.355468 9.355469-9.355468zm0 0" fill="#212121"/><path d="m12.144531 3.660156c-.089843 0-.1875.03125-.273437.089844l-2.480469 1.738281c-.28125.195313-.28125.613281 0 .8125l2.480469 1.734375c.082031.058594.179687.089844.28125.089844.273437.003906.5-.21875.5-.496094v-.96875c2.511718.25 4.464844 2.355469 4.464844 4.9375 0 1.824219-.976563 3.414063-2.433594 4.277344l.308594.214844c.339843.238281.535156.597656.59375.976562 1.816406-1.136718 3.019531-3.15625 3.019531-5.46875 0-3.40625-2.613281-6.179687-5.953125-6.429687v-1.011719c0-.289062-.234375-.492188-.488282-.496094-.003906 0-.011718 0-.019531 0zm-3.914062 2.46875c-1.816407 1.140625-3.019531 3.160156-3.019531 5.46875 0 3.40625 2.613281 6.179688 5.953124 6.433594v1.007812c0 .402344.453126.636719.78125.40625l2.480469-1.734374c.28125-.199219.28125-.617188 0-.8125l-2.480469-1.738282c-.082031-.054687-.179687-.085937-.28125-.089844-.273437 0-.5.222657-.5.496094v.96875c-2.515624-.246094-4.464843-2.355468-4.464843-4.9375 0-1.824218.972656-3.410156 2.433593-4.273437l-.308593-.214844c-.339844-.238281-.539063-.597656-.59375-.980469zm0 0" fill="url(#h)"/><path d="m12.144531 3.660156c-.089843 0-.1875.03125-.273437.089844l-2.480469 1.738281c-.179687.125-.246094.339844-.195313.527344.027344-.105469.09375-.207031.195313-.28125l2.480469-1.734375c.085937-.0625.183594-.089844.273437-.089844h.019531c.253907.003906.488282.207032.488282.496094v-.25c0-.289062-.234375-.492188-.488282-.496094-.003906 0-.011718 0-.019531 0zm.507813 1.507813v.25c3.296875.246093 5.886718 2.953125 5.953125 6.300781 0-.039062 0-.078125 0-.121094 0-3.40625-2.613281-6.179687-5.953125-6.429687zm-4.421875.960937c-1.816407 1.140625-3.019531 3.160156-3.019531 5.46875v.125c.042968-2.257812 1.234374-4.226562 3.019531-5.34375.054687.378906.253906.742188.59375.976563l.121093.085937c.0625-.039062.125-.078125.1875-.117187l-.308593-.214844c-.339844-.238281-.539063-.597656-.59375-.980469zm8.882812 5.644532c-.058593 1.75-1.019531 3.265624-2.429687 4.101562l.1875.128906c1.308594-.851562 2.183594-2.308594 2.242187-3.980468 0 .019531 0 .035156.003907.054687 0-.042969 0-.082031 0-.125 0-.058594 0-.121094-.003907-.179687zm-10.410156.003906c-.003906.058594-.003906.117187-.003906.175781v.128906c0-.019531 0-.039062.003906-.058593.085937 2.5 2.003906 4.519531 4.460937 4.761718v-.25c-2.457031-.242187-4.375-2.257812-4.460937-4.757812zm4.960937 3.292968c-.273437 0-.5.222657-.5.496094v.25c0-.277344.226563-.5.5-.496094.101563 0 .199219.03125.28125.089844l2.480469 1.738282c.101563.070312.167969.171874.195313.28125.046875-.191407-.015625-.40625-.195313-.53125l-2.480469-1.738282c-.082031-.054687-.179687-.085937-.28125-.089844zm0 0" fill="#fff" fill-opacity=".392157"/><path d="m9.246094 6.117188c-.125.210937-.074219.5.144531.652343l2.480469 1.738281c.082031.058594.179687.089844.28125.089844.273437.003906.5-.21875.5-.496094v-.496093c0 .277343-.226563.5-.5.496093-.101563 0-.199219-.03125-.28125-.089843l-2.480469-1.738281c-.0625-.042969-.109375-.097657-.144531-.15625zm3.40625.519531v.496093c2.433594.238282 4.339844 2.222657 4.457031 4.691407.003906-.085938.007813-.167969.007813-.25 0-2.582031-1.953126-4.691407-4.464844-4.9375zm-3.886719.902343c-1.253906.898438-2.066406 2.367188-2.066406 4.035157 0 .082031 0 .167969.003906.25.085937-1.722657 1.035156-3.207031 2.429687-4.027344l-.308593-.214844c-.019531-.015625-.039063-.03125-.058594-.042969zm9.835937 4.28125c-.082031 2.207032-1.265624 4.125-3.015624 5.222657-.054688-.359375-.234376-.699219-.539063-.9375-.117187.085937-.238281.164062-.363281.238281l.308594.21875c.339843.234375.535156.59375.59375.976562 1.816406-1.140624 3.019531-3.15625 3.019531-5.46875 0-.082031 0-.167968-.003907-.25zm-13.386718.003907c-.003906.082031-.003906.164062-.003906.246093 0 3.40625 2.613281 6.179688 5.953124 6.429688v-.496094c-3.257812-.242187-5.824218-2.886718-5.949218-6.179687zm9.355468 5.703125c-.035156.0625-.082031.117187-.144531.160156l-2.480469 1.734375c-.328124.230469-.78125-.003906-.78125-.40625v.496094c0 .402343.453126.636719.78125.40625l2.480469-1.734375c.21875-.15625.265625-.441406.144531-.65625zm0 0" fill-opacity=".235294"/><path d="m979.11911 295.089934c-7.243403 0-15.116667 2.519445-22.04514 7.243403l-199.980905 140.144099c-22.675 15.746528-22.675 49.444098 0 65.505557l199.980905 139.829168c6.613542 4.723958 14.486806 7.243403 22.675001 7.243403 22.045139.31493 40.311111-17.636112 40.311111-39.996181v-78.102779c202.50035 20.155556 359.96563 189.903127 359.96563 398.072227 0 147.072572-78.73264 275.249309-196.201739 344.848963l24.879514 17.321181c27.398959 19.210764 43.145487 48.184375 47.869445 78.73264 146.442711-91.644793 243.441323-254.463893 243.441323-440.902784 0-274.619448-210.688544-498.220145-479.954173-518.375701v-81.567015c0-23.304861-18.895833-39.68125-39.36632-39.996181-.31493 0-.944791 0-1.574652 0zm-315.560421 199.036114c-146.44271 91.959723-243.441323 254.778823-243.441323 440.902783 0 274.619448 210.688545 498.220145 479.954173 518.690632v81.252084c0 32.437848 36.531945 51.333681 62.986112 32.752778l199.980905-139.829168c22.675001-16.061459 22.675001-49.759029 0-65.505557l-199.980905-140.144098c-6.613542-4.409028-14.486806-6.928473-22.675-7.243403-22.045139 0-40.311112 17.951042-40.311112 39.996181v78.102778c-202.81528-19.840625-359.965629-189.903127-359.965629-398.072227 0-147.072571 78.417709-274.934378 196.201738-344.534032l-24.879514-17.321181c-27.398959-19.210764-43.460417-48.184375-47.869445-79.04757zm0 0" fill="none" stroke="#212121" stroke-linecap="round" stroke-width="11.338583" transform="scale(.0124035)"/></svg>

<?xml version="1.0" encoding="UTF-8"?>
<svg xmlns="http://www.w3.org/2000/svg" xmlns:xlink="http://www.w3.org/1999/xlink" width="24pt" height="24pt" viewBox="0 0 24 24" version="1.1">
<defs>
<radialGradient id="radial0" gradientUnits="userSpaceOnUse" cx="450.90894" cy="189.57936" fx="450.90894" fy="189.57936" r="21.166656" gradientTransform="matrix(0.000000130628,-0.0585994,-0.105479,-0.0000000761539,33.392364,47.696499)">
<stop offset="0" style="stop-color:rgb(0%,0%,0%);stop-opacity:0.313725;"/>
<stop offset="0.222222" style="stop-color:rgb(0%,0%,0%);stop-opacity:0.27451;"/>
<stop offset="1" style="stop-color:rgb(0%,0%,0%);stop-opacity:0;"/>
</radialGradient>
<radialGradient id="radial1" gradientUnits="userSpaceOnUse" cx="450.90894" cy="189.57936" fx="450.90894" fy="189.57936" r="21.166656" gradientTransform="matrix(-0.000000130628,0.0585994,0.105479,0.0000000761539,-9.57759,-5.645611)">
<stop offset="0" style="stop-color:rgb(0%,0%,0%);stop-opacity:0.313725;"/>
<stop offset="0.222222" style="stop-color:rgb(0%,0%,0%);stop-opacity:0.27451;"/>
<stop offset="1" style="stop-color:rgb(0%,0%,0%);stop-opacity:0;"/>
</radialGradient>
<radialGradient id="radial2" gradientUnits="userSpaceOnUse" cx="450.90894" cy="189.57936" fx="450.90894" fy="189.57936" r="21.166656" gradientTransform="matrix(-0.000000130628,-0.0585994,0.105479,-0.0000000761539,-9.57759,47.696499)">
<stop offset="0" style="stop-color:rgb(0%,0%,0%);stop-opacity:0.313725;"/>
<stop offset="0.222222" style="stop-color:rgb(0%,0%,0%);stop-opacity:0.27451;"/>
<stop offset="1" style="stop-color:rgb(0%,0%,0%);stop-opacity:0;"/>
</radialGradient>
<radialGradient id="radial3" gradientUnits="userSpaceOnUse" cx="450.90894" cy="189.57936" fx="450.90894" fy="189.57936" r="21.166656" gradientTransform="matrix(0.000000130628,0.0585994,-0.105479,0.0000000761539,33.392363,-5.645611)">
<stop offset="0" style="stop-color:rgb(0%,0%,0%);stop-opacity:0.313725;"/>
<stop offset="0.222222" style="stop-color:rgb(0%,0%,0%);stop-opacity:0.27451;"/>
<stop offset="1" style="stop-color:rgb(0%,0%,0%);stop-opacity:0;"/>
</radialGradient>
<linearGradient id="linear0" gradientUnits="userSpaceOnUse" x1="255.32306" y1="233.5" x2="255.32304" y2="254.66666" gradientTransform="matrix(0.01002,0,0,0.0468795,9.349039,10.079088)">
<stop offset="0" style="stop-color:rgb(0%,0%,0%);stop-opacity:0.27451;"/>
<stop offset="1" style="stop-color:rgb(0%,0%,0%);stop-opacity:0;"/>
</linearGradient>
<linearGradient id="linear1" gradientUnits="userSpaceOnUse" x1="254" y1="-168.66667" x2="254" y2="233.5" gradientTransform="matrix(1,0,0,1,0,0)">
<stop offset="0" style="stop-color:rgb(68.235294%,83.529412%,50.588235%);stop-opacity:1;"/>
<stop offset="1" style="stop-color:rgb(61.176471%,80%,39.607843%);stop-opacity:1;"/>
</linearGradient>
<linearGradient id="linear2" gradientUnits="userSpaceOnUse" x1="960" y1="1695.1182" x2="960" y2="175.11812" gradientTransform="matrix(0.0124035,0,0,0.0124035,0,0)">
<stop offset="0" style="stop-color:rgb(25.882353%,25.882353%,25.882353%);stop-opacity:1;"/>
<stop offset="1" style="stop-color:rgb(38.039216%,38.039216%,38.039216%);stop-opacity:1;"/>
</linearGradient>
</defs>
<g id="surface1">
<path style=" stroke:none;fill-rule:nonzero;fill:url(#radial0);" d="M 13.644531 21.027344 L 15.628906 21.027344 L 15.628906 20.03125 L 13.644531 20.03125 Z M 13.644531 21.027344 "/>
<path style=" stroke:none;fill-rule:nonzero;fill:url(#radial1);" d="M 10.171875 21.027344 L 8.1875 21.027344 L 8.1875 22.019531 L 10.171875 22.019531 Z M 10.171875 21.027344 "/>
<path style=" stroke:none;fill-rule:nonzero;fill:url(#radial2);" d="M 10.171875 21.027344 L 8.1875 21.027344 L 8.1875 20.03125 L 10.171875 20.03125 Z M 10.171875 21.027344 "/>
<path style=" stroke:none;fill-rule:nonzero;fill:url(#radial3);" d="M 13.644531 21.027344 L 15.628906 21.027344 L 15.628906 22.019531 L 13.644531 22.019531 Z M 13.644531 21.027344 "/>
<path style=" stroke:none;fill-rule:nonzero;fill:url(#linear0);" d="M 10.171875 20.777344 L 13.644531 20.777344 L 13.644531 22.019531 L 10.171875 22.019531 Z M 10.171875 20.777344 "/>
<path style="fill-rule:nonzero;fill:url(#linear1);stroke-width:3;stroke-linecap:round;stroke-linejoin:miter;stroke:rgb(20%,20%,20%);stroke-opacity:1;stroke-miterlimit:4;" d="M 253.975747 -168.671091 C 365.048473 -168.671091 455.123205 -78.679685 455.123205 32.393042 C 455.123205 143.465768 365.048473 233.5405 253.975747 233.5405 C 142.986345 233.5405 52.911614 143.465768 52.911614 32.393042 C 52.911614 -78.679685 142.986345 -168.671091 253.975747 -168.671091 Z M 253.975747 -168.671091 " transform="matrix(0.0468795,0,0,0.0468795,0,10.079087)"/>
<path style=" stroke:none;fill-rule:nonzero;fill:rgb(0%,0%,0%);fill-opacity:0.196078;" d="M 11.90625 21.027344 C 6.683594 21.027344 2.480469 16.820312 2.480469 11.597656 C 2.480469 11.566406 2.480469 11.539062 2.480469 11.507812 C 2.53125 16.6875 6.714844 20.839844 11.90625 20.839844 C 17.097656 20.839844 21.285156 16.6875 21.332031 11.507812 C 21.332031 11.539062 21.335938 11.566406 21.335938 11.597656 C 21.335938 16.820312 17.128906 21.027344 11.90625 21.027344 Z M 11.90625 21.027344 "/>
<path style=" stroke:none;fill-rule:nonzero;fill:rgb(100%,100%,100%);fill-opacity:0.392157;" d="M 11.90625 2.171875 C 6.683594 2.171875 2.480469 6.375 2.480469 11.597656 C 2.480469 11.628906 2.480469 11.660156 2.480469 11.691406 C 2.53125 6.511719 6.714844 2.355469 11.90625 2.355469 C 17.097656 2.355469 21.285156 6.511719 21.332031 11.691406 C 21.332031 11.660156 21.335938 11.628906 21.335938 11.597656 C 21.335938 6.375 17.128906 2.171875 11.90625 2.171875 Z M 11.90625 2.171875 "/>
<path style=" stroke:none;fill-rule:nonzero;fill:rgb(12.941176%,12.941176%,12.941176%);fill-opacity:1;" d="M 11.90625 2.101562 C 6.648438 2.101562 2.410156 6.339844 2.410156 11.597656 C 2.410156 16.859375 6.648438 21.097656 11.90625 21.097656 C 17.167969 21.097656 21.40625 16.859375 21.40625 11.597656 C 21.40625 6.339844 17.167969 2.101562 11.90625 2.101562 Z M 11.90625 2.242188 C 17.09375 2.242188 21.265625 6.414062 21.265625 11.597656 C 21.265625 16.785156 17.09375 20.957031 11.90625 20.957031 C 6.722656 20.957031 2.550781 16.785156 2.550781 11.597656 C 2.550781 6.414062 6.722656 2.242188 11.90625 2.242188 Z M 11.90625 2.242188 "/>
<path style=" stroke:none;fill-rule:nonzero;fill:url(#linear2);" d="M 12.144531 3.660156 C 12.054688 3.660156 11.957031 3.691406 11.871094 3.75 L 9.390625 5.488281 C 9.109375 5.683594 9.109375 6.101562 9.390625 6.300781 L 11.871094 8.035156 C 11.953125 8.09375 12.050781 8.125 12.152344 8.125 C 12.425781 8.128906 12.652344 7.90625 12.652344 7.628906 L 12.652344 6.660156 C 15.164062 6.910156 17.117188 9.015625 17.117188 11.597656 C 17.117188 13.421875 16.140625 15.011719 14.683594 15.875 L 14.992188 16.089844 C 15.332031 16.328125 15.527344 16.6875 15.585938 17.066406 C 17.402344 15.929688 18.605469 13.910156 18.605469 11.597656 C 18.605469 8.191406 15.992188 5.417969 12.652344 5.167969 L 12.652344 4.15625 C 12.652344 3.867188 12.417969 3.664062 12.164062 3.660156 C 12.160156 3.660156 12.152344 3.660156 12.144531 3.660156 Z M 8.230469 6.128906 C 6.414062 7.269531 5.210938 9.289062 5.210938 11.597656 C 5.210938 15.003906 7.824219 17.777344 11.164062 18.03125 L 11.164062 19.039062 C 11.164062 19.441406 11.617188 19.675781 11.945312 19.445312 L 14.425781 17.710938 C 14.707031 17.511719 14.707031 17.09375 14.425781 16.898438 L 11.945312 15.160156 C 11.863281 15.105469 11.765625 15.074219 11.664062 15.070312 C 11.390625 15.070312 11.164062 15.292969 11.164062 15.566406 L 11.164062 16.535156 C 8.648438 16.289062 6.699219 14.179688 6.699219 11.597656 C 6.699219 9.773438 7.671875 8.1875 9.132812 7.324219 L 8.824219 7.109375 C 8.484375 6.871094 8.285156 6.511719 8.230469 6.128906 Z M 8.230469 6.128906 "/>
<path style=" stroke:none;fill-rule:nonzero;fill:rgb(100%,100%,100%);fill-opacity:0.392157;" d="M 12.144531 3.660156 C 12.054688 3.660156 11.957031 3.691406 11.871094 3.75 L 9.390625 5.488281 C 9.210938 5.613281 9.144531 5.828125 9.195312 6.015625 C 9.222656 5.910156 9.289062 5.808594 9.390625 5.734375 L 11.871094 4 C 11.957031 3.9375 12.054688 3.910156 12.144531 3.910156 C 12.152344 3.910156 12.160156 3.910156 12.164062 3.910156 C 12.417969 3.914062 12.652344 4.117188 12.652344 4.40625 L 12.652344 4.15625 C 12.652344 3.867188 12.417969 3.664062 12.164062 3.660156 C 12.160156 3.660156 12.152344 3.660156 12.144531 3.660156 Z M 12.652344 5.167969 L 12.652344 5.417969 C 15.949219 5.664062 18.539062 8.371094 18.605469 11.71875 C 18.605469 11.679688 18.605469 11.640625 18.605469 11.597656 C 18.605469 8.191406 15.992188 5.417969 12.652344 5.167969 Z M 8.230469 6.128906 C 6.414062 7.269531 5.210938 9.289062 5.210938 11.597656 C 5.210938 11.640625 5.210938 11.679688 5.210938 11.722656 C 5.253906 9.464844 6.445312 7.496094 8.230469 6.378906 C 8.285156 6.757812 8.484375 7.121094 8.824219 7.355469 L 8.945312 7.441406 C 9.007812 7.402344 9.070312 7.363281 9.132812 7.324219 L 8.824219 7.109375 C 8.484375 6.871094 8.285156 6.511719 8.230469 6.128906 Z M 17.113281 11.773438 C 17.054688 13.523438 16.09375 15.039062 14.683594 15.875 L 14.871094 16.003906 C 16.179688 15.152344 17.054688 13.695312 17.113281 12.023438 C 17.113281 12.042969 17.113281 12.058594 17.117188 12.078125 C 17.117188 12.035156 17.117188 11.996094 17.117188 11.953125 C 17.117188 11.894531 17.117188 11.832031 17.113281 11.773438 Z M 6.703125 11.777344 C 6.699219 11.835938 6.699219 11.894531 6.699219 11.953125 C 6.699219 11.996094 6.699219 12.039062 6.699219 12.082031 C 6.699219 12.0625 6.699219 12.042969 6.703125 12.023438 C 6.789062 14.523438 8.707031 16.542969 11.164062 16.785156 L 11.164062 16.535156 C 8.707031 16.292969 6.789062 14.277344 6.703125 11.777344 Z M 11.664062 15.070312 C 11.390625 15.070312 11.164062 15.292969 11.164062 15.566406 L 11.164062 15.816406 C 11.164062 15.539062 11.390625 15.316406 11.664062 15.320312 C 11.765625 15.320312 11.863281 15.351562 11.945312 15.410156 L 14.425781 17.148438 C 14.527344 17.21875 14.59375 17.320312 14.621094 17.429688 C 14.667969 17.238281 14.605469 17.023438 14.425781 16.898438 L 11.945312 15.160156 C 11.863281 15.105469 11.765625 15.074219 11.664062 15.070312 Z M 11.664062 15.070312 "/>
<path style=" stroke:none;fill-rule:nonzero;fill:rgb(0%,0%,0%);fill-opacity:0.235294;" d="M 9.246094 6.117188 C 9.121094 6.328125 9.171875 6.617188 9.390625 6.769531 L 11.871094 8.507812 C 11.953125 8.566406 12.050781 8.597656 12.152344 8.597656 C 12.425781 8.601562 12.652344 8.378906 12.652344 8.101562 L 12.652344 7.605469 C 12.652344 7.882812 12.425781 8.105469 12.152344 8.101562 C 12.050781 8.101562 11.953125 8.070312 11.871094 8.011719 L 9.390625 6.273438 C 9.328125 6.230469 9.28125 6.175781 9.246094 6.117188 Z M 12.652344 6.636719 L 12.652344 7.132812 C 15.085938 7.371094 16.992188 9.355469 17.109375 11.824219 C 17.113281 11.738281 17.117188 11.65625 17.117188 11.574219 C 17.117188 8.992188 15.164062 6.882812 12.652344 6.636719 Z M 8.765625 7.539062 C 7.511719 8.4375 6.699219 9.90625 6.699219 11.574219 C 6.699219 11.65625 6.699219 11.742188 6.703125 11.824219 C 6.789062 10.101562 7.738281 8.617188 9.132812 7.796875 L 8.824219 7.582031 C 8.804688 7.566406 8.785156 7.550781 8.765625 7.539062 Z M 18.601562 11.820312 C 18.519531 14.027344 17.335938 15.945312 15.585938 17.042969 C 15.53125 16.683594 15.351562 16.34375 15.046875 16.105469 C 14.929688 16.191406 14.808594 16.269531 14.683594 16.34375 L 14.992188 16.5625 C 15.332031 16.796875 15.527344 17.15625 15.585938 17.539062 C 17.402344 16.398438 18.605469 14.382812 18.605469 12.070312 C 18.605469 11.988281 18.605469 11.902344 18.601562 11.820312 Z M 5.214844 11.824219 C 5.210938 11.90625 5.210938 11.988281 5.210938 12.070312 C 5.210938 15.476562 7.824219 18.25 11.164062 18.5 L 11.164062 18.003906 C 7.90625 17.761719 5.339844 15.117188 5.214844 11.824219 Z M 14.570312 17.527344 C 14.535156 17.589844 14.488281 17.644531 14.425781 17.6875 L 11.945312 19.421875 C 11.617188 19.652344 11.164062 19.417969 11.164062 19.015625 L 11.164062 19.511719 C 11.164062 19.914062 11.617188 20.148438 11.945312 19.917969 L 14.425781 18.183594 C 14.644531 18.027344 14.691406 17.742188 14.570312 17.527344 Z M 14.570312 17.527344 "/>
<path style="fill:none;stroke-width:11.338583;stroke-linecap:round;stroke-linejoin:miter;stroke:rgb(12.941176%,12.941176%,12.941176%);stroke-opacity:1;stroke-miterlimit:4;" d="M 979.11911 295.089934 C 971.875707 295.089934 964.002443 297.609379 957.07397 302.333337 L 757.093065 442.477436 C 734.418065 458.223964 734.418065 491.921534 757.093065 507.982993 L 957.07397 647.812161 C 963.687512 652.536119 971.560776 655.055564 979.748971 655.055564 C 1001.79411 655.370494 1020.060082 637.419452 1020.060082 615.059383 L 1020.060082 536.956604 C 1222.560432 557.11216 1380.025712 726.859731 1380.025712 935.028831 C 1380.025712 1082.101403 1301.293072 1210.27814 1183.823973 1279.877794 L 1208.703487 1297.198975 C 1236.102446 1316.409739 1251.848974 1345.38335 1256.572932 1375.931615 C 1403.015643 1284.286822 1500.014255 1121.467722 1500.014255 935.028831 C 1500.014255 660.409383 1289.325711 436.808686 1020.060082 416.65313 L 1020.060082 335.086115 C 1020.060082 311.781254 1001.164249 295.404865 980.693762 295.089934 C 980.378832 295.089934 979.748971 295.089934 979.11911 295.089934 Z M 663.558689 494.126048 C 517.115979 586.085771 420.117366 748.904871 420.117366 935.028831 C 420.117366 1209.648279 630.805911 1433.248976 900.071539 1453.719463 L 900.071539 1534.971547 C 900.071539 1567.409395 936.603484 1586.305228 963.057651 1567.724325 L 1163.038556 1427.895157 C 1185.713557 1411.833698 1185.713557 1378.136128 1163.038556 1362.3896 L 963.057651 1222.245502 C 956.444109 1217.836474 948.570845 1215.317029 940.382651 1215.002099 C 918.337512 1215.002099 900.071539 1232.953141 900.071539 1254.99828 L 900.071539 1333.101058 C 697.256259 1313.260433 540.10591 1143.197931 540.10591 935.028831 C 540.10591 787.95626 618.523619 660.094453 736.307648 590.494799 L 711.428134 573.173618 C 684.029175 553.962854 667.967717 524.989243 663.558689 494.126048 Z M 663.558689 494.126048 " transform="matrix(0.0124035,0,0,0.0124035,0,0)"/>
</g>
</svg>
